figures/ueberblick.svg

<?xml version="1.0" encoding="UTF-8" standalone="no"?>
<!-- Created with Inkscape (http://www.inkscape.org/) -->

<svg
   xmlns:dc="http://purl.org/dc/elements/1.1/"
   xmlns:cc="http://creativecommons.org/ns#"
   xmlns:rdf="http://www.w3.org/1999/02/22-rdf-syntax-ns#"
   xmlns:svg="http://www.w3.org/2000/svg"
   xmlns="http://www.w3.org/2000/svg"
   xmlns:sodipodi="http://sodipodi.sourceforge.net/DTD/sodipodi-0.dtd"
   xmlns:inkscape="http://www.inkscape.org/namespaces/inkscape"
   width="744.09448819"
   height="1052.3622047"
   id="svg2"
   version="1.1"
   inkscape:version="0.91 r13725"
   sodipodi:docname="ueberblick.svg">
  <defs
     id="defs4" />
  <sodipodi:namedview
     id="base"
     pagecolor="#ffffff"
     bordercolor="#666666"
     borderopacity="1.0"
     inkscape:pageopacity="0.0"
     inkscape:pageshadow="2"
     inkscape:zoom="0.5"
     inkscape:cx="388.20396"
     inkscape:cy="522.70906"
     inkscape:document-units="px"
     inkscape:current-layer="layer1"
     showgrid="false"
     inkscape:window-width="1440"
     inkscape:window-height="827"
     inkscape:window-x="0"
     inkscape:window-y="1"
     inkscape:window-maximized="1"
     showguides="false" />
  <metadata
     id="metadata7">
    <rdf:RDF>
      <cc:Work
         rdf:about="">
        <dc:format>image/svg+xml</dc:format>
        <dc:type
           rdf:resource="http://purl.org/dc/dcmitype/StillImage" />
        <dc:title />
      </cc:Work>
    </rdf:RDF>
  </metadata>
  <g
     inkscape:label="Layer 1"
     inkscape:groupmode="layer"
     id="layer1">
    <path
       style="fill:none;stroke:#000000;stroke-width:3;stroke-linecap:round;stroke-linejoin:round;stroke-miterlimit:3.79999995;stroke-opacity:1;stroke-dasharray:none"
       d="m 304.56099,604.10699 c -3.38235,6.285 -9.38723,60.86169 -4.33647,77.52921 13.57578,2.61729 21.47535,-9.45069 32.36821,-16.41498 2.41244,-2.55076 35.35534,-8.08122 35.35534,-8.08122 10.26433,-3.12673 8.76486,-42.91354 8.58629,-44.69925 -1.07143,-4.64286 -2.77792,-32.57742 -2.77792,-32.57742 0,-25.25381 -2.77792,-42.0476 -11.86929,-40.02729 -22.72843,10.6066 -51.51561,48.9051 -57.32616,64.27095 z"
       id="path3009"
       inkscape:connector-curvature="0"
       sodipodi:nodetypes="cccccccc" />
    <path
       style="fill:none;stroke:#000000;stroke-width:3;stroke-linecap:butt;stroke-linejoin:miter;stroke-miterlimit:3.79999995;stroke-opacity:1;stroke-dasharray:none"
       d="m 398.0001,579.61079 c -0.53571,2.67857 -5.94362,25.54968 -4.04061,36.36549 0.85696,5.90773 14.14214,16.66752 26.26397,26.76905 3.80603,3.469 -3.76687,21.79384 -2.52538,23.73858 5.25849,7.48402 38.89087,10.6066 47.47717,18.68782 2.52538,-5.55584 4.04061,-60.10408 -2.02031,-80.30713 -1.51523,-5.55584 -9.59644,-38.25952 -50.50762,-62.50318 -12.12183,-7.57614 -18.68783,13.51079 -14.64722,37.24937 z"
       id="path3011"
       inkscape:connector-curvature="0"
       sodipodi:nodetypes="cccccccc" />
    <path
       style="fill:none;stroke:#000000;stroke-width:3;stroke-linecap:round;stroke-linejoin:round;stroke-opacity:1;stroke-miterlimit:3.79999995;stroke-dasharray:none"
       d="m 300.52038,702.84941 c -10.32342,-73.8602 60.02102,-55.15991 93.94419,-51.51779 53.53808,-5.55584 74.24621,15.65736 70.2056,40.91118"
       id="path3781"
       inkscape:connector-curvature="0"
       sodipodi:nodetypes="ccc" />
    <path
       style="fill:none;stroke:#000000;stroke-width:3;stroke-linecap:round;stroke-linejoin:round;stroke-miterlimit:3.79999995;stroke-opacity:1;stroke-dasharray:none"
       d="m 381.08005,581.37856 c 1.51523,-8.33376 -5.55584,-55.81093 -14.14214,-65.65992 3.03046,-4.54569 9.78585,-1.83089 11.80616,-6.37658 3.78807,2.52538 11.42735,70.01619 11.42735,70.01619 2.27284,4.04061 6.10687,2.95649 6.86448,5.22933 -1.04055,4.77017 -2.42187,9.39847 -2.39276,9.3286 -5.86208,-3.25566 -12.37102,1.48766 -19.18021,2.593 0,0 -1.21038,-6.56151 -0.3788,-8.77571 3.03046,0.25254 6.75353,-3.57699 5.99592,-6.35491 z"
       id="path3783"
       inkscape:connector-curvature="0"
       sodipodi:nodetypes="ccccccccc" />
    <path
       style="fill:none;stroke:#000000;stroke-width:3;stroke-linecap:round;stroke-linejoin:round;stroke-miterlimit:3.79999995;stroke-opacity:1;stroke-dasharray:none"
       d="m 358.09908,504.60696 c 1.07329,3.66181 8.64942,10.92228 8.64942,10.92228 1.32583,-2.84106 11.11169,-3.09359 11.17483,-4.98763 1.89403,-0.63134 5.17702,-21.2132 4.0406,-23.29664 -1.8309,-2.77792 -4.23001,-1.01016 -4.67195,-0.56821 -1.6415,0.37881 -1.38896,8.08122 -4.67196,9.09137 -2.34671,0.62387 -9.01282,-0.6454 -12.4375,1.51523 -2.14658,1.51523 -2.58852,6.37658 -2.08344,7.3236 z"
       id="path3785"
       inkscape:connector-curvature="0"
       sodipodi:nodetypes="cccccccc" />
    <path
       style="fill:none;stroke:#000000;stroke-width:3;stroke-linecap:round;stroke-linejoin:round;stroke-miterlimit:4;stroke-dasharray:none;stroke-opacity:1"
       d="m 374.30857,480.18881 c -0.76133,-16.68021 -11.6638,-18.70051 -14.69426,-19.07932 -11.11168,-0.75761 -23.21819,6.08892 -21.9555,10.63461 1.76777,4.92449 6.4894,5.06608 6.23686,9.10669 -1.09944,2.28817 -3.52154,1.19135 -4.48442,0.65119 -2.58889,-1.13642 -6.85009,-13.17798 -6.85009,-13.17798 l -0.57984,10.81416 c 0.20618,-1.31166 -2.24854,-9.25644 -5.06105,-9.8368 -8.93405,-1.59651 -4.44937,6.07657 -4.44937,6.07657 5.86848,10.69642 -2.0981,9.71329 -0.86358,15.46575 2.63934,9.08704 38.43509,3.12394 31.69353,26.57963 -1.39009,6.92577 -42.316,25.35757 -77.16626,32.93371"
       id="path3789"
       inkscape:connector-curvature="0"
       sodipodi:nodetypes="cccccccccccc" />
    <path
       style="fill:none;stroke:#000000;stroke-width:3;stroke-linecap:round;stroke-linejoin:round;stroke-miterlimit:4;stroke-opacity:1;stroke-dasharray:none"
       d="m 276.27672,616.48136 c -1.26269,11.36422 6.56599,17.67767 6.56599,17.67767 -4.04061,15.40483 3.283,69.19545 4.04061,74.75129"
       id="path3799"
       inkscape:connector-curvature="0"
       sodipodi:nodetypes="ccc" />
    <path
       style="fill:none;stroke:#000000;stroke-width:3;stroke-linecap:round;stroke-linejoin:round;stroke-miterlimit:4;stroke-opacity:1;stroke-dasharray:none"
       d="m 490.42906,621.02705 c 0,1.51523 -2.77792,12.37436 -7.57614,14.14213 3.53553,37.37564 -5.05077,71.72083 -6.566,74.75129"
       id="path3801"
       inkscape:connector-curvature="0"
       sodipodi:nodetypes="ccc" />
    <path
       style="fill:none;stroke:#000000;stroke-width:3;stroke-linecap:round;stroke-linejoin:round;stroke-miterlimit:4;stroke-dasharray:none;stroke-opacity:1"
       d="m 519.21841,554.86205 c -16.41498,-4.54569 -72.22591,-27.27412 -84.34774,-44.44671 -28.03174,-37.37564 20.45559,-52.2754 20.20305,-100.51018 -8.83883,-41.41625 -35.60787,-55.05331 -60.60915,-54.2957 -73.4886,0.75761 -58.33631,47.72971 -65.15484,54.80078 -3.28299,8.58629 -21.46574,24.24366 -20.45559,29.7995 0.0781,1.44918 0.99673,2.23571 2.31369,2.75342 m 4.02519,0.99493 c 4.47059,0.927 9.05335,2.36578 5.34101,11.80305 -0.10646,3.54639 7.7507,5.58442 7.57429,-4.41941 1.57836,0 4.04785,7.64493 4.04785,7.64493 0,0 2.19082,-7.46503 3.20097,-7.33876 1.59146,0.77013 19.89584,-6.99195 31.20625,-5.66638 7.00198,1.72462 8.61025,10.18397 12.55273,9.59495 -0.11218,-24.23531 -24.72912,-28.61175 -63.97702,-11.64426 m -3.26962,-1.0835 c 9.99899,-14.37947 17.73766,-25.72472 29.6402,-28.22166 11.90253,-2.49694 33.42088,3.82067 41.70461,6.48512 15.85156,4.4169 3.25209,47.67049 -0.80239,66.5314"
       id="path3803"
       inkscape:connector-curvature="0"
       sodipodi:nodetypes="ccccccccccccccccscc" />
    <text
       xml:space="preserve"
       style="font-style:normal;font-variant:normal;font-weight:normal;font-stretch:normal;font-size:24px;line-height:125%;font-family:Sans;-inkscape-font-specification:Sans;text-align:start;letter-spacing:0px;word-spacing:0px;writing-mode:lr-tb;text-anchor:start;fill:#000000;fill-opacity:1;stroke:none"
       x="159.28691"
       y="589.02948"
       id="text3817"
       sodipodi:linespacing="125%"><tspan
         sodipodi:role="line"
         id="tspan3819"
         x="159.28691"
         y="589.02948"
         style="font-style:normal;font-variant:normal;font-weight:normal;font-stretch:normal;font-size:24px;line-height:125%;font-family:'Linux Libertine O';-inkscape-font-specification:'Linux Libertine O, Normal';text-align:start;writing-mode:lr-tb;text-anchor:start">Zwerchfell</tspan></text>
    <text
       xml:space="preserve"
       style="font-style:normal;font-variant:normal;font-weight:normal;font-stretch:normal;font-size:24px;line-height:125%;font-family:Sans;-inkscape-font-specification:Sans;text-align:start;letter-spacing:0px;word-spacing:0px;writing-mode:lr-tb;text-anchor:start;fill:#000000;fill-opacity:1;stroke:none"
       x="529.53064"
       y="632.26831"
       id="text3829"
       sodipodi:linespacing="125%"><tspan
         sodipodi:role="line"
         id="tspan3831"
         x="529.53064"
         y="632.26831"
         style="font-style:normal;font-variant:normal;font-weight:normal;font-stretch:normal;font-size:24px;line-height:125%;font-family:'Linux Libertine O';-inkscape-font-specification:'Linux Libertine O, Normal';text-align:start;writing-mode:lr-tb;text-anchor:start">Lunge</tspan></text>
    <text
       xml:space="preserve"
       style="font-style:normal;font-variant:normal;font-weight:normal;font-stretch:normal;font-size:24px;line-height:125%;font-family:Sans;-inkscape-font-specification:Sans;text-align:start;letter-spacing:0px;word-spacing:0px;writing-mode:lr-tb;text-anchor:start;fill:#000000;fill-opacity:1;stroke:none"
       x="492.78433"
       y="508.1871"
       id="text3837"
       sodipodi:linespacing="125%"><tspan
         sodipodi:role="line"
         id="tspan3839"
         x="492.78433"
         y="508.1871"
         style="font-style:normal;font-variant:normal;font-weight:normal;font-stretch:normal;font-size:24px;line-height:125%;font-family:'Linux Libertine O';-inkscape-font-specification:'Linux Libertine O, Normal';text-align:start;writing-mode:lr-tb;text-anchor:start">Luftröhre</tspan></text>
    <text
       xml:space="preserve"
       style="font-style:normal;font-variant:normal;font-weight:normal;font-stretch:normal;font-size:24px;line-height:125%;font-family:Sans;-inkscape-font-specification:Sans;text-align:start;letter-spacing:0px;word-spacing:0px;writing-mode:lr-tb;text-anchor:start;fill:#000000;fill-opacity:1;stroke:none"
       x="482.65274"
       y="455.94778"
       id="text3843"
       sodipodi:linespacing="125%"><tspan
         sodipodi:role="line"
         id="tspan3845"
         x="482.65274"
         y="455.94778"
         style="font-style:normal;font-variant:normal;font-weight:normal;font-stretch:normal;font-size:24px;line-height:125%;font-family:'Linux Libertine O';-inkscape-font-specification:'Linux Libertine O, Normal';text-align:start;writing-mode:lr-tb;text-anchor:start">Kehlkopf</tspan></text>
    <text
       xml:space="preserve"
       style="font-style:normal;font-variant:normal;font-weight:normal;font-stretch:normal;font-size:24px;line-height:125%;font-family:Sans;-inkscape-font-specification:Sans;text-align:start;letter-spacing:0px;word-spacing:0px;writing-mode:lr-tb;text-anchor:start;fill:#000000;fill-opacity:1;stroke:none"
       x="192.80696"
       y="364.61865"
       id="text3849"
       sodipodi:linespacing="125%"><tspan
         sodipodi:role="line"
         id="tspan3851"
         x="192.80696"
         y="364.61865"
         style="font-style:normal;font-variant:normal;font-weight:normal;font-stretch:normal;font-size:24px;line-height:125%;font-family:'Linux Libertine O';-inkscape-font-specification:'Linux Libertine O, Normal';text-align:start;writing-mode:lr-tb;text-anchor:start">Nasenhöhle</tspan></text>
    <text
       xml:space="preserve"
       style="font-style:normal;font-variant:normal;font-weight:normal;font-stretch:normal;font-size:24px;line-height:125%;font-family:'Linux Libertine O';-inkscape-font-specification:'Linux Libertine O, Normal';text-align:start;letter-spacing:0px;word-spacing:0px;writing-mode:lr-tb;text-anchor:start;fill:#000000;fill-opacity:1;stroke:none"
       x="169.25366"
       y="481.59244"
       id="text3855"
       sodipodi:linespacing="125%"><tspan
         sodipodi:role="line"
         id="tspan3857"
         x="169.25366"
         y="481.59244">Mundhöhle</tspan></text>
    <text
       xml:space="preserve"
       style="font-style:normal;font-weight:normal;font-size:24px;line-height:125%;font-family:'Bitstream Vera Sans';letter-spacing:0px;word-spacing:0px;fill:#000000;fill-opacity:1;stroke:none"
       x="473.30371"
       y="386.46567"
       id="text3869"
       sodipodi:linespacing="125%"><tspan
         sodipodi:role="line"
         id="tspan3871"
         x="473.30371"
         y="386.46567"
         style="font-style:normal;font-variant:normal;font-weight:normal;font-stretch:normal;font-size:24px;line-height:125%;font-family:'Linux Libertine O';-inkscape-font-specification:'Linux Libertine O, Normal';text-align:start;writing-mode:lr-tb;text-anchor:start">Rachen</tspan></text>
    <path
       style="fill:none;fill-rule:evenodd;stroke:#000000;stroke-width:2;stroke-linecap:butt;stroke-linejoin:miter;stroke-miterlimit:4;stroke-dasharray:none;stroke-opacity:1"
       d="m 303.59778,368.45409 31.63011,59.59478"
       id="path4739"
       inkscape:connector-curvature="0"
       sodipodi:nodetypes="cc" />
    <path
       style="fill:none;fill-rule:evenodd;stroke:#000000;stroke-width:2;stroke-linecap:butt;stroke-linejoin:miter;stroke-miterlimit:4;stroke-dasharray:none;stroke-opacity:1"
       d="m 380.81444,468.07608 99.46813,-77.40663"
       id="path4741"
       inkscape:connector-curvature="0"
       sodipodi:nodetypes="cc" />
    <path
       style="fill:none;fill-rule:evenodd;stroke:#000000;stroke-width:2;stroke-linecap:butt;stroke-linejoin:miter;stroke-miterlimit:4;stroke-dasharray:none;stroke-opacity:1"
       d="M 372.47544,504.21176 490.89555,462.48064"
       id="path4743"
       inkscape:connector-curvature="0"
       sodipodi:nodetypes="cc" />
    <path
       style="fill:none;fill-rule:evenodd;stroke:#000000;stroke-width:2;stroke-linecap:butt;stroke-linejoin:miter;stroke-miterlimit:4;stroke-dasharray:none;stroke-opacity:1"
       d="M 378.59071,531.4525 497.53795,513.97078"
       id="path4745"
       inkscape:connector-curvature="0"
       sodipodi:nodetypes="cc" />
    <path
       style="fill:none;fill-rule:evenodd;stroke:#000000;stroke-width:2;stroke-linecap:butt;stroke-linejoin:miter;stroke-miterlimit:4;stroke-dasharray:none;stroke-opacity:1"
       d="m 423.53122,585.08521 110.72086,27.4169"
       id="path4747"
       inkscape:connector-curvature="0"
       sodipodi:nodetypes="cc" />
    <path
       style="fill:none;fill-rule:evenodd;stroke:#000000;stroke-width:2;stroke-linecap:butt;stroke-linejoin:miter;stroke-miterlimit:4;stroke-dasharray:none;stroke-opacity:1"
       d="M 314.10242,647.6426 265.55471,593.67441"
       id="path4749"
       inkscape:connector-curvature="0"
       sodipodi:nodetypes="cc" />
    <path
       style="fill:none;fill-rule:evenodd;stroke:#000000;stroke-width:2;stroke-linecap:butt;stroke-linejoin:miter;stroke-opacity:1;stroke-miterlimit:4;stroke-dasharray:none"
       d="m 343.58259,459.19057 -58.87556,16.09224"
       id="path4751"
       inkscape:connector-curvature="0"
       sodipodi:nodetypes="cc" />
  </g>
</svg>

<?xml version="1.0" encoding="UTF-8" standalone="no"?>
<!DOCTYPE svg PUBLIC "-//W3C//DTD SVG 1.1//EN" "http://www.w3.org/Graphics/SVG/1.1/DTD/svg11.dtd">
<svg width="100%" height="100%" viewBox="0 0 745 1053" version="1.1" xmlns="http://www.w3.org/2000/svg" xmlns:xlink="http://www.w3.org/1999/xlink" xml:space="preserve" xmlns:serif="http://www.serif.com/" style="fill-rule:evenodd;clip-rule:evenodd;stroke-linecap:round;stroke-linejoin:round;stroke-miterlimit:3.8;">
    <g id="Layer-1" serif:id="Layer 1">
        <path id="path3009" d="M304.561,604.107C301.179,610.392 295.174,664.969 300.225,681.636C313.8,684.253 321.7,672.186 332.593,665.221C335.005,662.67 367.948,657.14 367.948,657.14C378.212,654.013 376.713,614.226 376.534,612.441C375.463,607.798 373.756,579.863 373.756,579.863C373.756,554.61 370.979,537.816 361.887,539.836C339.159,550.443 310.372,588.741 304.561,604.107Z" style="fill:none;stroke:black;stroke-width:3px;"/>
        <path id="path3011" d="M398,579.611C397.464,582.289 392.056,605.16 393.959,615.976C394.816,621.884 408.102,632.644 420.223,642.745C424.029,646.214 416.457,664.539 417.698,666.484C422.957,673.968 456.589,677.091 465.175,685.172C467.701,679.616 469.216,625.068 463.155,604.865C461.64,599.309 453.559,566.605 412.647,542.361C400.525,534.785 393.959,555.872 398,579.611Z" style="fill:none;stroke:black;stroke-width:3px;stroke-linecap:butt;stroke-linejoin:miter;"/>
        <path id="path3781" d="M300.52,702.849C290.197,628.989 360.541,647.69 394.465,651.332C448.003,645.776 468.711,666.989 464.67,692.243" style="fill:none;stroke:black;stroke-width:3px;"/>
        <path id="path3783" d="M381.08,581.379C382.595,573.045 375.524,525.568 366.938,515.719C369.968,511.173 376.724,513.888 378.744,509.342C382.532,511.867 390.171,579.358 390.171,579.358C392.444,583.399 396.278,582.315 397.036,584.588C395.995,589.358 394.614,593.986 394.643,593.916C388.781,590.661 382.272,595.404 375.463,596.509C375.463,596.509 374.253,589.948 375.084,587.733C378.115,587.986 381.838,584.156 381.08,581.379Z" style="fill:none;stroke:black;stroke-width:3px;"/>
        <path id="path3785" d="M358.099,504.607C359.172,508.269 366.749,515.529 366.749,515.529C368.074,512.688 377.86,512.436 377.923,510.542C379.817,509.91 383.1,489.328 381.964,487.245C380.133,484.467 377.734,486.235 377.292,486.677C375.65,487.056 375.903,494.758 372.62,495.768C370.273,496.392 363.607,495.123 360.183,497.283C358.036,498.799 357.594,503.66 358.099,504.607Z" style="fill:none;stroke:black;stroke-width:3px;"/>
        <path id="path3789" d="M374.309,480.189C373.547,463.509 362.645,461.488 359.614,461.109C348.503,460.352 336.396,467.198 337.659,471.744C339.427,476.669 344.148,476.81 343.896,480.851C342.796,483.139 340.374,482.042 339.411,481.502C336.822,480.366 332.561,468.324 332.561,468.324L331.981,479.138C332.188,477.827 329.733,469.882 326.92,469.301C317.986,467.705 322.471,475.378 322.471,475.378C328.339,486.074 320.373,485.091 321.607,490.844C324.247,499.931 360.042,493.968 353.301,517.423C351.911,524.349 310.985,542.781 276.135,550.357" style="fill:none;stroke:black;stroke-width:3px;stroke-miterlimit:4;"/>
        <path id="path3799" d="M276.277,616.481C275.014,627.846 282.843,634.159 282.843,634.159C278.802,649.564 286.126,703.354 286.883,708.91" style="fill:none;stroke:black;stroke-width:3px;stroke-miterlimit:4;"/>
        <path id="path3801" d="M490.429,621.027C490.429,622.542 487.651,633.401 482.853,635.169C486.388,672.545 477.802,706.89 476.287,709.92" style="fill:none;stroke:black;stroke-width:3px;stroke-miterlimit:4;"/>
        <path id="path3803" d="M519.218,554.862C502.803,550.316 446.992,527.588 434.871,510.415C406.839,473.04 455.326,458.14 455.074,409.905C446.235,368.489 419.466,354.852 394.465,355.609C320.976,356.367 336.128,403.339 329.31,410.41C326.027,418.997 307.844,434.654 308.854,440.21C308.932,441.659 309.851,442.445 311.168,442.963M315.193,443.958C319.664,444.885 324.246,446.324 320.534,455.761C320.428,459.308 328.285,461.346 328.108,451.342C329.687,451.342 332.156,458.987 332.156,458.987C332.156,458.987 334.347,451.522 335.357,451.648C336.949,452.418 355.253,444.656 366.563,445.982C373.565,447.706 375.174,456.165 379.116,455.576C379.004,431.341 354.387,426.965 315.139,443.932M311.869,442.849C321.868,428.469 329.607,417.124 341.51,414.627C353.412,412.13 374.931,418.448 383.214,421.112C399.066,425.529 386.466,468.783 382.412,487.644" style="fill:none;stroke:black;stroke-width:3px;stroke-miterlimit:4;"/>
        <g transform="matrix(1,0,0,1,124.296,585.69)">
            <g id="text3817">
                <g>
                    <text x="15.036px" y="0px" style="font-family:'LinLibertineO', 'Linux Libertine O';font-size:24px;">Zw<tspan x="47.268px 57.996px 66.732px " y="0px 0px 0px ">erc</tspan>hfell</text>
                    <text x="0px" y="24px" style="font-family:'LinLibertineO', 'Linux Libertine O';font-size:24px;">(Diaphragma)</text>
                </g>
            </g>
        </g>
        <g transform="matrix(1,0,0,1,536.002,605.259)">
            <g id="text3829">
                <g>
                    <text x="8.136px" y="0px" style="font-family:'LinLibertineO', 'Linux Libertine O';font-size:24px;">Lunge</text>
                    <text x="0px" y="24px" style="font-family:'LinLibertineO', 'Linux Libertine O';font-size:24px;">(Pulmo)</text>
                </g>
            </g>
        </g>
        <g transform="matrix(1,0,0,1,521.065,506.207)">
            <g id="text3837">
                <g>
                    <text x="0px" y="0px" style="font-family:'LinLibertineO', 'Linux Libertine O';font-size:24px;">Luröhr<tspan x="82.392px " y="0px ">e</tspan></text>
                    <text x="0.096px" y="24px" style="font-family:'LinLibertineO', 'Linux Libertine O';font-size:24px;">(T<tspan x="21.096px " y="24px ">r</tspan>achea)</text>
                </g>
            </g>
        </g>
        <g transform="matrix(1,0,0,1,506.338,433.883)">
            <g id="text3843">
                <g>
                    <text x="0px" y="0px" style="font-family:'LinLibertineO', 'Linux Libertine O';font-size:24px;">K<tspan x="14.808px " y="0px ">e</tspan>hlkopf</text>
                    <text x="2.352px" y="24px" style="font-family:'LinLibertineO', 'Linux Libertine O';font-size:24px;">(Lar<tspan x="42.432px " y="24px ">y</tspan>nx)</text>
                </g>
            </g>
        </g>
        <g transform="matrix(1,0,0,1,131.14,377.212)">
            <g id="text3849">
                <g>
                    <text x="8.448px" y="0px" style="font-family:'LinLibertineO', 'Linux Libertine O';font-size:24px;">Nasenhöhle</text>
                    <text x="0px" y="24px" style="font-family:'LinLibertineO', 'Linux Libertine O';font-size:24px;">(<tspan x="6.912px " y="24px ">C</tspan>avitas nasi)</text>
                </g>
            </g>
        </g>
        <g transform="matrix(1,0,0,1,143.818,471.714)">
            <g id="text3855">
                <g>
                    <text x="6.66px" y="0px" style="font-family:'LinLibertineO', 'Linux Libertine O';font-size:24px;">Mundhöhle</text>
                    <text x="-1.716px" y="24px" style="font-family:'LinLibertineO', 'Linux Libertine O';font-size:24px;">(<tspan x="5.196px " y="24px ">C</tspan>avitas oris</text>
                    <text x="120.9px" y="24px" style="font-family:'LinLibertineO', 'Linux Libertine O';font-size:24px;">)</text>
                </g>
            </g>
        </g>
        <g transform="matrix(1,0,0,1,493.519,348.416)">
            <g id="text3869">
                <g>
                    <text x="12.948px" y="0px" style="font-family:'LinLibertineO', 'Linux Libertine O';font-size:24px;">Rachen</text>
                    <text x="0px" y="24px" style="font-family:'LinLibertineO', 'Linux Libertine O';font-size:24px;">(P<tspan x="20.424px " y="24px ">h</tspan>ar<tspan x="53.592px " y="24px ">y</tspan>nx)</text>
                </g>
            </g>
        </g>
        <path id="path4739" d="M270.967,380.198L335.228,428.049" style="fill:none;stroke:black;stroke-width:2px;stroke-linecap:butt;stroke-linejoin:miter;stroke-miterlimit:4;"/>
        <path id="path4741" d="M380.814,468.076L486.014,357.783" style="fill:none;stroke:black;stroke-width:2px;stroke-linecap:butt;stroke-linejoin:miter;stroke-miterlimit:4;"/>
        <path id="path4743" d="M372.475,504.212L500.722,440.489" style="fill:none;stroke:black;stroke-width:2px;stroke-linecap:butt;stroke-linejoin:miter;stroke-miterlimit:4;"/>
        <path id="path4745" d="M378.591,531.453L508.187,513.273" style="fill:none;stroke:black;stroke-width:2px;stroke-linecap:butt;stroke-linejoin:miter;stroke-miterlimit:4;"/>
        <path id="path4747" d="M423.531,585.085L525.775,607.261" style="fill:none;stroke:black;stroke-width:2px;stroke-linecap:butt;stroke-linejoin:miter;stroke-miterlimit:4;"/>
        <path id="path4749" d="M314.102,647.643L265.555,593.674" style="fill:none;stroke:black;stroke-width:2px;stroke-linecap:butt;stroke-linejoin:miter;stroke-miterlimit:4;"/>
        <path id="path4751" d="M343.583,459.191L284.707,475.283" style="fill:none;stroke:black;stroke-width:2px;stroke-linecap:butt;stroke-linejoin:miter;stroke-miterlimit:4;"/>
    </g>
</svg>
